X:8
T:Slide From Grace
R:slip jig
M:9/8
L:1/8
K:Emin
|:"Em"G2E EDE GAB|G2E EDB, DD/2D/2D|G2E EDE GAB|1 "C"B2A A2G "D"ABB:|2 "C"B2A A2G "D"ABd||
"Am"e2d dBA GAB|"G/B"DDD DB,D GBd|"C"e2d dBA GAB|"D"B2A A2G ABd|
"Am"e2d dBA GAB|"G/B"DDD DB,D GAB|"C"A2G B2D EG"D"A|z(3Bcd edB A2B||


